X:317
T:Roxborough Castle
M:C |
L:1/8
K:G
D2 | G>FG>B d>BG>B | c>Bc>e d>B G2 | c2 e>c B2 d>B | A>GA>G A>cB>A |
G>FG>B d>BG>B | c>Bc>e d>BG2 | g>fg>e d>cB>A | B2G2G2 :|
d2 | g>dB>d e>dB>d | g>dB>d e>dB>d | c2 e>c B2 d>B | A>GA>G A>cB>A |
G>FG>B d>BG>B | c>Bc>e d>B G2 | g>fg>e d>cB>A | B2G2G2 :|
